; generated by PrusaSlicer 2.8.1+win64 on 2024-12-12 at 16:54:28 UTC


;
;
; 

; external perimeters extrusion width = 0.42mm
; perimeters extrusion width = 0.45mm
; infill extrusion width = 0.45mm
; solid infill extrusion width = 0.45mm
; top infill extrusion width = 0.42mm
; first layer extrusion width = 0.50mm

M73 P0 R6
;TYPE:Custom
G90 ; use absolute coordinates
M83 ; extruder relative mode
M140 S65 ; set bed temp
M190 S65 ; wait for bed temp
M104 S220 ; set extruder temp
M109 S220 ; wait for extruder temp
G28                                        ; move X/Y/Z to min endstops
G1 Z0.28                                   ; lift nozzle a bit 
G92 E0 
G1 Y3 F2400                                    ; zero the extruded length 
G1 X180  E40 F500                       ; Extrude 25mm of filament in a 5cm line. 
G92 E0                                     ; zero the extruded length again 
G1 E-0.2 F3000                                ; Retract a little 
M73 P6 R5
G1 X181 F4000                              ; Quickly wipe away from the filament line
M117
G21 ; set units to millimeters
G90 ; use absolute coordinates
M82 ; use absolute distances for extrusion
G92 E0
M107
;LAYER_CHANGE
;Z:0.24
;HEIGHT:0.24
G1 E-.8 F2400
G92 E0
G1 Z1.74 F18000
G92 E0
G1 X164.68 Y164.68
G1 Z.24
G1 E.8 F2400
M204 S5000
;TYPE:External perimeter
;WIDTH:0.499999
G1 F4200
G1 X65.32 Y164.68 E5.02414
G1 X65.32 Y65.32 E9.24828
G1 X164.68 Y65.32 E13.47242
M73 P7 R5
G1 X164.68 Y115 E15.58449
G1 X164.68 Y164.62 E17.69401
M204 S20000
M204 S10000
G1 X163.71 Y164.232 F18000
M204 S5000
;TYPE:Perimeter
G1 F4200
G1 X65.768 Y164.232 E21.85786
G1 X65.768 Y65.768 E26.04391
M73 P8 R5
G1 X164.232 Y65.768 E30.22996
G1 X164.232 Y115 E32.32298
M73 P9 R5
G1 X164.232 Y164.232 E34.416
G1 X163.77 Y164.232 E34.43564
M204 S20000
G1 E34.03564 F2400
;WIPE_START
G1 F14400
G1 X163.71 Y164.232 E34.02614
G1 X161.244 Y164.232 E33.63564
;WIPE_END
G92 E0
M204 S10000
G1 X161.405 Y158.636 Z1.74 F18000
G1 X164.052 Y66.856
G1 Z.24
G1 E.8 F2400
M204 S5000
;TYPE:Solid infill
;WIDTH:0.500707
G1 F4200
G1 X163.346 Y66.15 E.84251
G1 X162.711 Y66.15 E.86955
G1 X163.85 Y67.289 E.93814
G1 X163.85 Y67.925 E.96522
G1 X162.075 Y66.15 E1.07211
G1 X161.44 Y66.15 E1.09915
G1 X163.85 Y68.56 E1.24428
G1 X163.85 Y69.195 E1.27132
G1 X160.805 Y66.15 E1.45468
G1 X160.169 Y66.15 E1.48176
G1 X163.85 Y69.831 E1.70342
G1 X163.85 Y70.466 E1.73046
G1 X159.534 Y66.15 E1.99036
G1 X158.899 Y66.15 E2.0174
G1 X163.85 Y71.101 E2.31554
G1 X163.85 Y71.736 E2.34258
G1 X158.264 Y66.15 E2.67896
G1 X157.628 Y66.15 E2.70604
G1 X163.85 Y72.372 E3.08072
G1 X163.85 Y73.007 E3.10776
G1 X156.993 Y66.15 E3.52067
G1 X156.358 Y66.15 E3.54771
G1 X163.85 Y73.642 E3.99886
G1 X163.85 Y74.277 E4.0259
G1 X155.723 Y66.15 E4.51529
G1 X155.087 Y66.15 E4.54237
M73 P10 R5
G1 X163.85 Y74.913 E5.07006
G1 X163.85 Y75.548 E5.0971
G1 X154.452 Y66.15 E5.66303
G1 X153.817 Y66.15 E5.69007
G1 X163.85 Y76.183 E6.29424
G1 X163.85 Y76.819 E6.32132
G1 X153.182 Y66.15 E6.96376
G1 X152.546 Y66.15 E6.99084
G1 X163.85 Y77.454 E7.67154
G1 X163.85 Y78.089 E7.69858
G1 X151.911 Y66.15 E8.41752
G1 X151.276 Y66.15 E8.44456
G1 X163.85 Y78.724 E9.20174
G1 X163.85 Y79.36 E9.22882
G1 X150.64 Y66.15 E10.0243
G1 X150.005 Y66.15 E10.05134
G1 X163.85 Y79.995 E10.88506
G1 X163.85 Y80.63 E10.9121
G1 X149.37 Y66.15 E11.78406
G1 X148.735 Y66.15 E11.8111
G1 X163.85 Y81.265 E12.7213
G1 X163.85 Y81.901 E12.74838
G1 X148.099 Y66.15 E13.69687
G1 X147.464 Y66.15 E13.72391
G1 X163.85 Y82.536 E14.71064
G1 X163.85 Y83.171 E14.73768
M73 P11 R5
G1 X146.829 Y66.15 E15.76265
G1 X146.194 Y66.15 E15.78969
G1 X163.85 Y83.806 E16.8529
G1 X163.85 Y84.442 E16.87998
G1 X145.558 Y66.15 E17.98149
G1 X144.923 Y66.15 E18.00853
G1 X163.85 Y85.077 E19.14828
G1 X163.85 Y85.712 E19.17532
G1 X144.288 Y66.15 E20.3533
G1 X143.652 Y66.15 E20.38038
G1 X163.85 Y86.348 E21.59666
G1 X163.85 Y86.983 E21.6237
G1 X143.017 Y66.15 E22.87822
G1 X142.382 Y66.15 E22.90526
G1 X163.85 Y87.618 E24.19802
G1 X163.85 Y88.253 E24.22506
G1 X141.747 Y66.15 E25.55606
G1 X141.111 Y66.15 E25.58314
M73 P12 R5
G1 X163.85 Y88.889 E26.95244
G1 X163.85 Y89.524 E26.97948
G1 X140.476 Y66.15 E28.38702
G1 X139.841 Y66.15 E28.41406
G1 X163.85 Y90.159 E29.85983
G1 X163.85 Y90.794 E29.88687
G1 X139.206 Y66.15 E31.37088
G1 X138.57 Y66.15 E31.39796
G1 X163.85 Y91.43 E32.92027
G1 X163.85 Y92.065 E32.94731
G1 X137.935 Y66.15 E34.50786
G1 X137.3 Y66.15 E34.5349
G1 X163.85 Y92.7 E36.13369
G1 X163.85 Y93.335 E36.16073
M73 P13 R5
G1 X136.665 Y66.15 E37.79776
G1 X136.029 Y66.15 E37.82484
G1 X163.85 Y93.971 E39.50017
G1 X163.85 Y94.606 E39.52721
G1 X135.394 Y66.15 E41.24077
G1 X134.759 Y66.15 E41.26781
G1 X163.85 Y95.241 E43.01961
G1 X163.85 Y95.877 E43.04669
G1 X134.123 Y66.15 E44.83679
G1 X133.488 Y66.15 E44.86383
G1 X163.85 Y96.512 E46.69217
G1 X163.85 Y97.147 E46.71921
M73 P14 R5
G1 X132.853 Y66.15 E48.58579
G1 X132.218 Y66.15 E48.61283
G1 X163.85 Y97.782 E50.51765
G1 X163.85 Y98.418 E50.54473
G1 X131.582 Y66.15 E52.48785
G1 X130.947 Y66.15 E52.51489
G1 X163.85 Y99.053 E54.49624
G1 X163.85 Y99.688 E54.52328
G1 X130.312 Y66.15 E56.54287
G1 X129.677 Y66.15 E56.56991
G1 X163.85 Y100.323 E58.62774
M73 P15 R5
G1 X163.85 Y100.959 E58.65482
G1 X129.041 Y66.15 E60.75095
G1 X128.406 Y66.15 E60.77799
G1 X163.85 Y101.594 E62.91236
G1 X163.85 Y102.229 E62.9394
G1 X127.771 Y66.15 E65.11201
G1 X127.135 Y66.15 E65.13909
G1 X163.85 Y102.865 E67.34999
G1 X163.85 Y103.5 E67.37703
M73 P16 R5
G1 X126.5 Y66.15 E69.62617
G1 X125.865 Y66.15 E69.65321
G1 X163.85 Y104.135 E71.94059
G1 X163.85 Y104.77 E71.96763
G1 X125.23 Y66.15 E74.29325
G1 X124.594 Y66.15 E74.32033
G1 X163.85 Y105.406 E76.68425
G1 X163.85 Y106.041 E76.71129
M73 P16 R4
G1 X123.959 Y66.15 E79.11345
G1 X123.324 Y66.15 E79.14049
M73 P17 R4
G1 X163.85 Y106.676 E81.58089
G1 X163.85 Y107.311 E81.60793
G1 X122.689 Y66.15 E84.08656
G1 X122.053 Y66.15 E84.11364
G1 X163.85 Y107.947 E86.63057
G1 X163.85 Y108.582 E86.65761
G1 X121.418 Y66.15 E89.21278
G1 X120.783 Y66.15 E89.23982
M73 P18 R4
G1 X163.85 Y109.217 E91.83323
G1 X163.85 Y109.852 E91.86027
G1 X120.148 Y66.15 E94.49192
G1 X119.512 Y66.15 E94.519
G1 X163.85 Y110.488 E97.18895
G1 X163.85 Y111.123 E97.21599
G1 X118.877 Y66.15 E99.92418
G1 X118.242 Y66.15 E99.95122
M73 P19 R4
G1 X163.85 Y111.758 E102.69764
G1 X163.85 Y112.394 E102.72472
G1 X117.606 Y66.15 E105.50944
G1 X116.971 Y66.15 E105.53648
G1 X163.85 Y113.029 E108.35944
G1 X163.85 Y113.664 E108.38648
G1 X116.336 Y66.15 E111.24768
G1 X115.701 Y66.15 E111.27472
M73 P20 R4
G1 X163.85 Y114.299 E114.17416
G1 X163.85 Y114.935 E114.20124
G1 X115.065 Y66.15 E117.13898
G1 X114.43 Y66.15 E117.16602
G1 X163.85 Y115.57 E120.14199
G1 X163.85 Y116.205 E120.16903
M73 P21 R4
G1 X113.795 Y66.15 E123.18324
G1 X113.16 Y66.15 E123.21028
G1 X163.85 Y116.84 E126.26273
G1 X163.85 Y117.476 E126.28981
G1 X112.524 Y66.15 E129.38056
G1 X111.889 Y66.15 E129.4076
G1 X163.85 Y118.111 E132.53659
G1 X163.85 Y118.746 E132.56363
M73 P22 R4
G1 X111.254 Y66.15 E135.73086
G1 X110.618 Y66.15 E135.75794
G1 X163.85 Y119.382 E138.96347
G1 X163.85 Y120.017 E138.99051
G1 X109.983 Y66.15 E142.23427
G1 X109.348 Y66.15 E142.26131
M73 P23 R4
G1 X163.85 Y120.652 E145.54331
G1 X163.85 Y121.287 E145.57035
G1 X108.713 Y66.15 E148.89059
G1 X108.077 Y66.15 E148.91767
G1 X163.85 Y121.923 E152.27621
G1 X163.85 Y122.558 E152.30325
M73 P24 R4
G1 X107.442 Y66.15 E155.70003
G1 X106.807 Y66.15 E155.72707
G1 X163.85 Y123.193 E159.16209
G1 X163.85 Y123.828 E159.18913
G1 X106.172 Y66.15 E162.66239
G1 X105.536 Y66.15 E162.68947
M73 P25 R4
G1 X163.85 Y124.464 E166.20102
G1 X163.85 Y125.099 E166.22806
G1 X104.901 Y66.15 E169.77785
G1 X104.266 Y66.15 E169.80489
G1 X163.85 Y125.734 E173.39292
G1 X163.85 Y126.369 E173.41996
M73 P26 R4
G1 X103.631 Y66.15 E177.04623
G1 X102.995 Y66.15 E177.07331
G1 X163.85 Y127.005 E180.73788
G1 X163.85 Y127.64 E180.76492
G1 X102.36 Y66.15 E184.46773
G1 X101.725 Y66.15 E184.49477
M73 P27 R4
G1 X163.85 Y128.275 E188.23581
G1 X163.85 Y128.911 E188.26289
G1 X101.089 Y66.15 E192.04223
G1 X100.454 Y66.15 E192.06927
G1 X163.85 Y129.546 E195.88685
G1 X163.85 Y130.181 E195.91389
M73 P28 R4
G1 X99.819 Y66.15 E199.76971
G1 X99.184 Y66.15 E199.79675
G1 X163.85 Y130.816 E203.69081
G1 X163.85 Y131.452 E203.71789
G1 X98.548 Y66.15 E207.65025
G1 X97.913 Y66.15 E207.67729
M73 P29 R4
G1 X163.85 Y132.087 E211.64789
G1 X163.85 Y132.722 E211.67493
G1 X97.278 Y66.15 E215.68376
G1 X96.643 Y66.15 E215.7108
M73 P30 R4
G1 X163.85 Y133.357 E219.75787
G1 X163.85 Y133.993 E219.78495
G1 X96.007 Y66.15 E223.87032
G1 X95.372 Y66.15 E223.89736
G1 X163.85 Y134.628 E228.02097
G1 X163.85 Y135.263 E228.04801
M73 P31 R4
G1 X94.737 Y66.15 E232.20986
G1 X94.101 Y66.15 E232.23694
G1 X163.85 Y135.899 E236.43709
G1 X163.85 Y136.534 E236.46413
G1 X93.466 Y66.15 E240.70252
G1 X92.831 Y66.15 E240.72956
M73 P32 R4
G1 X163.85 Y137.169 E245.00618
G1 X163.85 Y137.804 E245.03322
G1 X92.196 Y66.15 E249.34808
G1 X91.56 Y66.15 E249.37516
M73 P33 R4
G1 X163.85 Y138.44 E253.72832
G1 X163.85 Y139.075 E253.75536
M73 P33 R3
G1 X90.925 Y66.15 E258.14676
G1 X90.29 Y66.15 E258.1738
G1 X163.85 Y139.71 E262.60344
G1 X163.85 Y140.345 E262.63048
M73 P34 R3
G1 X89.655 Y66.15 E267.09836
G1 X89.019 Y66.15 E267.12544
G1 X163.85 Y140.981 E271.63161
G1 X163.85 Y141.616 E271.65865
M73 P35 R3
G1 X88.384 Y66.15 E276.20306
G1 X87.749 Y66.15 E276.2301
G1 X163.85 Y142.251 E280.81275
G1 X163.85 Y142.886 E280.83979
M73 P36 R3
G1 X87.114 Y66.15 E285.46068
G1 X86.478 Y66.15 E285.48776
G1 X163.85 Y143.522 E290.14695
G1 X163.85 Y144.157 E290.17399
G1 X85.843 Y66.15 E294.87142
M73 P37 R3
G1 X85.208 Y66.15 E294.89846
G1 X163.85 Y144.792 E299.63413
G1 X163.85 Y145.428 E299.66121
G1 X84.572 Y66.15 E304.43517
G1 X83.937 Y66.15 E304.46221
M73 P38 R3
G1 X163.85 Y146.063 E309.27441
G1 X163.85 Y146.698 E309.30145
G1 X83.302 Y66.15 E314.15189
G1 X82.667 Y66.15 E314.17893
M73 P39 R3
G1 X163.85 Y147.333 E319.06761
G1 X163.85 Y147.969 E319.09469
G1 X82.031 Y66.15 E324.02167
G1 X81.396 Y66.15 E324.04871
M73 P40 R3
G1 X163.85 Y148.604 E329.01393
G1 X163.85 Y149.239 E329.04097
G1 X80.761 Y66.15 E334.04443
G1 X80.126 Y66.15 E334.07147
M73 P41 R3
G1 X163.85 Y149.874 E339.11316
G1 X163.85 Y150.51 E339.14024
G1 X79.49 Y66.15 E344.22023
G1 X78.855 Y66.15 E344.24727
M73 P42 R3
G1 X163.85 Y151.145 E349.3655
G1 X163.85 Y151.78 E349.39254
G1 X78.22 Y66.15 E354.54901
G1 X77.584 Y66.15 E354.57609
M73 P43 R3
G1 X163.85 Y152.416 E359.77086
G1 X163.85 Y153.051 E359.7979
G1 X76.949 Y66.15 E365.03091
G1 X76.314 Y66.15 E365.05795
M73 P44 R3
G1 X163.85 Y153.686 E370.32919
G1 X163.85 Y154.321 E370.35623
G1 X75.679 Y66.15 E375.66571
G1 X75.043 Y66.15 E375.69279
M73 P45 R3
G1 X163.85 Y154.957 E381.04057
G1 X163.85 Y155.592 E381.06761
G1 X74.408 Y66.15 E386.45363
G1 X73.773 Y66.15 E386.48067
M73 P46 R3
G1 X163.85 Y156.227 E391.90493
G1 X163.85 Y156.862 E391.93197
G1 X73.138 Y66.15 E397.39447
G1 X72.502 Y66.15 E397.42155
M73 P47 R3
G1 X163.85 Y157.498 E402.92235
G1 X163.85 Y158.133 E402.94939
G1 X71.867 Y66.15 E408.48842
G1 X71.232 Y66.15 E408.51546
M73 P48 R3
G1 X163.85 Y158.768 E414.09273
G1 X163.85 Y159.403 E414.11977
G1 X70.597 Y66.15 E419.73528
G1 X69.961 Y66.15 E419.76236
M73 P49 R3
G1 X163.85 Y160.039 E425.41617
G1 X163.85 Y160.674 E425.44321
G1 X69.326 Y66.15 E431.13526
G1 X68.691 Y66.15 E431.1623
M73 P50 R2
G1 X163.85 Y161.309 E436.89259
G1 X163.85 Y161.945 E436.91967
G1 X68.055 Y66.15 E442.68826
G1 X67.42 Y66.15 E442.7153
M73 P51 R2
G1 X163.85 Y162.58 E448.52212
G1 X163.85 Y163.215 E448.54916
G1 X66.785 Y66.15 E454.39422
G1 X66.15 Y66.15 E454.42126
M73 P52 R2
G1 X163.85 Y163.85 E460.30456
G1 X163.215 Y163.85 E460.3316
G1 X66.15 Y66.785 E466.17666
G1 X66.15 Y67.42 E466.2037
M73 P53 R2
G1 X162.58 Y163.85 E472.01052
G1 X161.944 Y163.85 E472.0376
M73 P54 R2
G1 X66.15 Y68.056 E477.80613
G1 X66.15 Y68.691 E477.83317
G1 X161.309 Y163.85 E483.56346
G1 X160.674 Y163.85 E483.5905
M73 P55 R2
G1 X66.15 Y69.326 E489.28255
G1 X66.15 Y69.961 E489.30959
G1 X160.039 Y163.85 E494.9634
G1 X159.403 Y163.85 E494.99048
M73 P56 R2
G1 X66.15 Y70.597 E500.60599
G1 X66.15 Y71.232 E500.63303
G1 X158.768 Y163.85 E506.2103
G1 X158.133 Y163.85 E506.23734
M73 P57 R2
G1 X66.15 Y71.867 E511.77637
G1 X66.15 Y72.502 E511.80341
G1 X157.498 Y163.85 E517.30421
G1 X156.862 Y163.85 E517.33129
M73 P58 R2
G1 X66.15 Y73.138 E522.79379
G1 X66.15 Y73.773 E522.82083
G1 X156.227 Y163.85 E528.24509
G1 X155.592 Y163.85 E528.27213
M73 P59 R2
G1 X66.15 Y74.408 E533.65815
G1 X66.15 Y75.044 E533.68523
G1 X154.956 Y163.85 E539.03295
G1 X154.321 Y163.85 E539.05999
M73 P60 R2
G1 X66.15 Y75.679 E544.36947
G1 X66.15 Y76.314 E544.39651
G1 X153.686 Y163.85 E549.66775
G1 X153.051 Y163.85 E549.69479
M73 P61 R2
G1 X66.15 Y76.949 E554.9278
G1 X66.15 Y77.585 E554.95488
G1 X152.415 Y163.85 E560.14959
G1 X151.78 Y163.85 E560.17663
M73 P62 R2
G1 X66.15 Y78.22 E565.3331
G1 X66.15 Y78.855 E565.36014
G1 X151.145 Y163.85 E570.47837
G1 X150.51 Y163.85 E570.50541
M73 P63 R2
G1 X66.15 Y79.49 E575.5854
G1 X66.15 Y80.126 E575.61248
G1 X149.874 Y163.85 E580.65417
G1 X149.239 Y163.85 E580.68121
M73 P64 R2
G1 X66.15 Y80.761 E585.68467
G1 X66.15 Y81.396 E585.71171
G1 X148.604 Y163.85 E590.67693
G1 X147.969 Y163.85 E590.70397
M73 P65 R2
G1 X66.15 Y82.032 E595.63092
G1 X66.15 Y82.667 E595.65796
G1 X147.333 Y163.85 E600.54664
G1 X146.698 Y163.85 E600.57368
M73 P66 R2
G1 X66.15 Y83.302 E605.42412
G1 X66.15 Y83.937 E605.45116
G1 X146.063 Y163.85 E610.26336
G1 X145.427 Y163.85 E610.29044
M73 P67 R1
G1 X66.15 Y84.573 E615.06434
G1 X66.15 Y85.208 E615.09138
G1 X144.792 Y163.85 E619.82705
G1 X144.157 Y163.85 E619.85409
G1 X66.15 Y85.843 E624.55152
G1 X66.15 Y86.478 E624.57856
M73 P68 R1
G1 X143.522 Y163.85 E629.23775
G1 X142.886 Y163.85 E629.26483
G1 X66.15 Y87.114 E633.88572
G1 X66.15 Y87.749 E633.91276
M73 P69 R1
G1 X142.251 Y163.85 E638.49541
G1 X141.616 Y163.85 E638.52245
G1 X66.15 Y88.384 E643.06686
G1 X66.15 Y89.019 E643.0939
M73 P70 R1
G1 X140.981 Y163.85 E647.60007
G1 X140.345 Y163.85 E647.62715
G1 X66.15 Y89.655 E652.09503
G1 X66.15 Y90.29 E652.12207
G1 X139.71 Y163.85 E656.55171
G1 X139.075 Y163.85 E656.57875
M73 P71 R1
G1 X66.15 Y90.925 E660.97015
G1 X66.15 Y91.561 E660.99723
G1 X138.439 Y163.85 E665.35033
G1 X137.804 Y163.85 E665.37737
M73 P72 R1
G1 X66.15 Y92.196 E669.69223
G1 X66.15 Y92.831 E669.71927
G1 X137.169 Y163.85 E673.99589
G1 X136.534 Y163.85 E674.02293
M73 P73 R1
G1 X66.15 Y93.466 E678.26132
G1 X66.15 Y94.102 E678.2884
G1 X135.898 Y163.85 E682.48849
G1 X135.263 Y163.85 E682.51553
G1 X66.15 Y94.737 E686.67738
G1 X66.15 Y95.372 E686.70442
M73 P74 R1
G1 X134.628 Y163.85 E690.82803
G1 X133.993 Y163.85 E690.85507
G1 X66.15 Y96.007 E694.94044
G1 X66.15 Y96.643 E694.96752
G1 X133.357 Y163.85 E699.01459
G1 X132.722 Y163.85 E699.04163
M73 P75 R1
G1 X66.15 Y97.278 E703.05046
G1 X66.15 Y97.913 E703.0775
G1 X132.087 Y163.85 E707.0481
G1 X131.452 Y163.85 E707.07514
M73 P76 R1
G1 X66.15 Y98.548 E711.0075
G1 X66.15 Y99.184 E711.03458
G1 X130.816 Y163.85 E714.92864
G1 X130.181 Y163.85 E714.95568
G1 X66.15 Y99.819 E718.8115
G1 X66.15 Y100.454 E718.83854
M73 P77 R1
G1 X129.546 Y163.85 E722.65612
G1 X128.91 Y163.85 E722.6832
G1 X66.15 Y101.09 E726.46248
G1 X66.15 Y101.725 E726.48952
G1 X128.275 Y163.85 E730.23056
G1 X127.64 Y163.85 E730.2576
M73 P78 R1
G1 X66.15 Y102.36 E733.96041
G1 X66.15 Y102.995 E733.98745
G1 X127.005 Y163.85 E737.65202
G1 X126.369 Y163.85 E737.6791
M73 P79 R1
G1 X66.15 Y103.631 E741.30537
G1 X66.15 Y104.266 E741.33241
G1 X125.734 Y163.85 E744.92044
G1 X125.099 Y163.85 E744.94748
G1 X66.15 Y104.901 E748.49727
G1 X66.15 Y105.536 E748.52431
M73 P80 R1
G1 X124.464 Y163.85 E752.03586
G1 X123.828 Y163.85 E752.06294
G1 X66.15 Y106.172 E755.5362
G1 X66.15 Y106.807 E755.56324
G1 X123.193 Y163.85 E758.99826
G1 X122.558 Y163.85 E759.0253
M73 P81 R1
G1 X66.15 Y107.442 E762.42208
G1 X66.15 Y108.078 E762.44916
G1 X121.922 Y163.85 E765.80764
G1 X121.287 Y163.85 E765.83468
G1 X66.15 Y108.713 E769.15492
G1 X66.15 Y109.348 E769.18196
G1 X120.652 Y163.85 E772.46396
G1 X120.017 Y163.85 E772.491
M73 P82 R1
